dist/assets/images/logo.svg

<svg width="148" height="66" viewBox="0 0 148 66" fill="none" xmlns="http://www.w3.org/2000/svg">
<path d="M10.16 66L7.56 62.7H4.48V59.66H8.96C9.44 59.66 9.83333 59.5133 10.14 59.22C10.4467 58.9133 10.6 58.5067 10.6 58C10.6 57.4933 10.4467 57.0933 10.14 56.8C9.83333 56.4933 9.44 56.34 8.96 56.34H3.48V66H0V53H8.96C9.70667 53 10.3933 53.12 11.02 53.36C11.6467 53.5867 12.1867 53.9133 12.64 54.34C13.1067 54.7667 13.4667 55.28 13.72 55.88C13.9733 56.48 14.1 57.14 14.1 57.86C14.1 58.86 13.86 59.7333 13.38 60.48C12.9 61.2267 12.2533 61.7933 11.44 62.18L14.72 66H10.16Z" fill="#242424"/>
<path d="M28.77 66L27.69 64H21.59L23.07 61.22H26.21L23.99 57.04L19.23 66H15.37L22.01 53.96C22.37 53.32 22.89 53 23.57 53H24.37C25.05 53 25.57 53.32 25.93 53.96L32.57 66H28.77Z" fill="#242424"/>
<path d="M49.5388 66L47.6188 57.64L45.3588 64.76C45.1188 65.5867 44.5721 66 43.7188 66H42.6588C41.8054 66 41.2588 65.5867 41.0188 64.76L38.7588 57.5L36.8388 66H33.3787L36.0188 54.48C36.1254 53.9333 36.3254 53.5533 36.6188 53.34C36.9121 53.1133 37.2788 53 37.7188 53H39.1788C40.0321 53 40.5854 53.42 40.8388 54.26L43.1988 62.04L45.5388 54.26C45.7921 53.42 46.3388 53 47.1788 53H48.6388C49.0788 53 49.4454 53.1133 49.7388 53.34C50.0321 53.5533 50.2388 53.9333 50.3588 54.48L53.0188 66H49.5388Z" fill="#242424"/>
<path d="M62.5058 62.64C62.9591 62.64 63.3791 62.5667 63.7658 62.42C64.1525 62.26 64.4858 62.0467 64.7658 61.78C65.0458 61.5 65.2591 61.1667 65.4058 60.78C65.5658 60.3933 65.6458 59.9667 65.6458 59.5C65.6458 59.0333 65.5658 58.6067 65.4058 58.22C65.2591 57.8333 65.0458 57.5 64.7658 57.22C64.4858 56.94 64.1525 56.7267 63.7658 56.58C63.3791 56.42 62.9591 56.34 62.5058 56.34H60.1458C59.6924 56.34 59.2725 56.42 58.8858 56.58C58.4991 56.7267 58.1658 56.94 57.8858 57.22C57.6058 57.5 57.3858 57.8333 57.2258 58.22C57.0658 58.6067 56.9858 59.0333 56.9858 59.5C56.9858 59.9667 57.0591 60.3933 57.2058 60.78C57.3658 61.1667 57.5858 61.5 57.8658 61.78C58.1458 62.0467 58.4791 62.26 58.8658 62.42C59.2525 62.5667 59.6791 62.64 60.1458 62.64H62.5058ZM60.3858 66C59.3858 66 58.4658 65.8467 57.6258 65.54C56.7858 65.22 56.0591 64.78 55.4458 64.22C54.8458 63.6467 54.3725 62.96 54.0258 62.16C53.6791 61.36 53.5058 60.4733 53.5058 59.5C53.5058 58.5267 53.6791 57.6467 54.0258 56.86C54.3725 56.06 54.8458 55.3733 55.4458 54.8C56.0591 54.2267 56.7858 53.7867 57.6258 53.48C58.4658 53.16 59.3858 53 60.3858 53H62.2658C63.2525 53 64.1658 53.16 65.0058 53.48C65.8458 53.7867 66.5658 54.2267 67.1658 54.8C67.7791 55.3733 68.2591 56.06 68.6058 56.86C68.9524 57.6467 69.1258 58.5267 69.1258 59.5C69.1258 60.4733 68.9524 61.36 68.6058 62.16C68.2591 62.96 67.7791 63.6467 67.1658 64.22C66.5658 64.78 65.8458 65.22 65.0058 65.54C64.1658 65.8467 63.2525 66 62.2658 66H60.3858Z" fill="#242424"/>
<path d="M70.4417 66V62.64H80.1617C80.4151 62.64 80.6217 62.5667 80.7817 62.42C80.9417 62.26 81.0217 62.04 81.0217 61.76C81.0217 61.48 80.9417 61.26 80.7817 61.1C80.6217 60.94 80.4151 60.86 80.1617 60.86H74.4417C73.8417 60.86 73.2817 60.7667 72.7617 60.58C72.2551 60.38 71.8151 60.1133 71.4417 59.78C71.0817 59.4333 70.7951 59.02 70.5817 58.54C70.3817 58.06 70.2817 57.5267 70.2817 56.94C70.2817 56.3533 70.3817 55.82 70.5817 55.34C70.7951 54.8467 71.0817 54.4267 71.4417 54.08C71.8151 53.7333 72.2551 53.4667 72.7617 53.28C73.2817 53.0933 73.8417 53 74.4417 53H84.3217V56.34H74.6017C74.3484 56.34 74.1417 56.4133 73.9817 56.56C73.8351 56.7067 73.7617 56.92 73.7617 57.2C73.7617 57.4667 73.8351 57.68 73.9817 57.84C74.1417 58 74.3484 58.08 74.6017 58.08H80.3217C80.9351 58.08 81.4951 58.18 82.0017 58.38C82.5084 58.5667 82.9484 58.8333 83.3217 59.18C83.6951 59.5267 83.9817 59.9467 84.1817 60.44C84.3951 60.92 84.5017 61.4467 84.5017 62.02C84.5017 62.62 84.3951 63.1667 84.1817 63.66C83.9817 64.14 83.6951 64.56 83.3217 64.92C82.9484 65.2667 82.5084 65.5333 82.0017 65.72C81.4951 65.9067 80.9351 66 80.3217 66H70.4417Z" fill="#242424"/>
<path d="M90.8905 60.86V58.08H98.5705V60.86H90.8905ZM86.2305 66V53H98.7105V56.34H89.7305V62.64H98.7305V66H86.2305Z" fill="#242424"/>
<path d="M111.522 66L107.682 61.52L103.942 66H99.7817L105.482 59.22L100.242 53H104.662L107.962 56.94L111.282 53H115.442L110.182 59.24L115.942 66H111.522Z" fill="#242424"/>
<path d="M121.648 62.78V59.68H125.868C126.335 59.68 126.721 59.5267 127.028 59.22C127.348 58.9133 127.508 58.5133 127.508 58.02C127.508 57.5133 127.348 57.1067 127.028 56.8C126.721 56.4933 126.335 56.34 125.868 56.34H120.648V66H117.168V53H125.808C126.568 53 127.261 53.12 127.888 53.36C128.528 53.6 129.075 53.9333 129.528 54.36C129.995 54.7867 130.355 55.3 130.608 55.9C130.861 56.5 130.988 57.1667 130.988 57.9C130.988 58.62 130.861 59.28 130.608 59.88C130.355 60.48 129.995 61 129.528 61.44C129.075 61.8667 128.528 62.2 127.888 62.44C127.261 62.6667 126.568 62.78 125.808 62.78H121.648Z" fill="#242424"/>
<path d="M141.295 62.64C141.748 62.64 142.168 62.5667 142.555 62.42C142.942 62.26 143.275 62.0467 143.555 61.78C143.835 61.5 144.048 61.1667 144.195 60.78C144.355 60.3933 144.435 59.9667 144.435 59.5C144.435 59.0333 144.355 58.6067 144.195 58.22C144.048 57.8333 143.835 57.5 143.555 57.22C143.275 56.94 142.942 56.7267 142.555 56.58C142.168 56.42 141.748 56.34 141.295 56.34H138.935C138.482 56.34 138.062 56.42 137.675 56.58C137.288 56.7267 136.955 56.94 136.675 57.22C136.395 57.5 136.175 57.8333 136.015 58.22C135.855 58.6067 135.775 59.0333 135.775 59.5C135.775 59.9667 135.848 60.3933 135.995 60.78C136.155 61.1667 136.375 61.5 136.655 61.78C136.935 62.0467 137.268 62.26 137.655 62.42C138.041 62.5667 138.468 62.64 138.935 62.64H141.295ZM139.175 66C138.175 66 137.255 65.8467 136.415 65.54C135.575 65.22 134.848 64.78 134.235 64.22C133.635 63.6467 133.162 62.96 132.815 62.16C132.468 61.36 132.295 60.4733 132.295 59.5C132.295 58.5267 132.468 57.6467 132.815 56.86C133.162 56.06 133.635 55.3733 134.235 54.8C134.848 54.2267 135.575 53.7867 136.415 53.48C137.255 53.16 138.175 53 139.175 53H141.055C142.042 53 142.955 53.16 143.795 53.48C144.635 53.7867 145.355 54.2267 145.955 54.8C146.568 55.3733 147.048 56.06 147.395 56.86C147.742 57.6467 147.915 58.5267 147.915 59.5C147.915 60.4733 147.742 61.36 147.395 62.16C147.048 62.96 146.568 63.6467 145.955 64.22C145.355 64.78 144.635 65.22 143.795 65.54C142.955 65.8467 142.042 66 141.055 66H139.175Z" fill="#242424"/>
<path d="M50.5087 3.93481L70.0174 23.3938L50.5087 42.8528L31 23.3938L50.5087 3.93481Z" fill="url(#paint0_linear_909_2867)"/>
<path d="M96.5087 3.93481L116.017 23.3938L96.5087 42.8528L77 23.3938L96.5087 3.93481Z" fill="url(#paint1_linear_909_2867)"/>
<path d="M73.5175 0L85.0807 11.5337L73.5175 23.0674L61.9544 11.5337L73.5175 0Z" fill="#FCCB17"/>
<path d="M73.5175 22.9326L85.0807 34.4663L73.5175 46L61.9544 34.4663L73.5175 22.9326Z" fill="#E84B0F"/>
<defs>
<linearGradient id="paint0_linear_909_2867" x1="64.0175" y1="56.5" x2="63.8721" y2="-0.499627" gradientUnits="userSpaceOnUse">
<stop stop-color="#D61607"/>
<stop offset="0.489583" stop-color="#F87717"/>
<stop offset="1" stop-color="#FECE24"/>
</linearGradient>
<linearGradient id="paint1_linear_909_2867" x1="110.018" y1="56.5" x2="109.872" y2="-0.499627" gradientUnits="userSpaceOnUse">
<stop stop-color="#D61607"/>
<stop offset="0.489583" stop-color="#F87717"/>
<stop offset="1" stop-color="#FECE24"/>
</linearGradient>
</defs>
</svg>

<svg width="148" height="66" fill="none" xmlns="http://www.w3.org/2000/svg"><path d="m10.16 66-2.6-3.3H4.48v-3.04h4.48c.48 0 .873-.147 1.18-.44.307-.307.46-.713.46-1.22s-.153-.907-.46-1.2c-.307-.307-.7-.46-1.18-.46H3.48V66H0V53h8.96c.747 0 1.433.12 2.06.36a4.628 4.628 0 0 1 1.62.98c.467.427.827.94 1.08 1.54.253.6.38 1.26.38 1.98 0 1-.24 1.873-.72 2.62a4.614 4.614 0 0 1-1.94 1.7L14.72 66h-4.56Zm18.61 0-1.08-2h-6.1l1.48-2.78h3.14l-2.22-4.18L19.23 66h-3.86l6.64-12.04c.36-.64.88-.96 1.56-.96h.8c.68 0 1.2.32 1.56.96L32.57 66h-3.8Zm20.769 0-1.92-8.36-2.26 7.12c-.24.827-.787 1.24-1.64 1.24h-1.06c-.854 0-1.4-.413-1.64-1.24l-2.26-7.26-1.92 8.5h-3.46l2.64-11.52c.106-.547.306-.927.6-1.14.293-.227.66-.34 1.1-.34h1.46c.853 0 1.406.42 1.66 1.26l2.36 7.78 2.34-7.78c.253-.84.8-1.26 1.64-1.26h1.46c.44 0 .806.113 1.1.34.293.213.5.593.62 1.14L53.019 66h-3.48Zm12.967-3.36a3.52 3.52 0 0 0 1.26-.22c.387-.16.72-.373 1-.64a2.8 2.8 0 0 0 .64-1c.16-.387.24-.813.24-1.28 0-.467-.08-.893-.24-1.28a2.799 2.799 0 0 0-.64-1 2.799 2.799 0 0 0-1-.64 3.263 3.263 0 0 0-1.26-.24h-2.36c-.454 0-.873.08-1.26.24-.387.147-.72.36-1 .64s-.5.613-.66 1c-.16.387-.24.813-.24 1.28 0 .467.073.893.22 1.28.16.387.38.72.66 1 .28.267.613.48 1 .64.386.147.813.22 1.28.22h2.36ZM60.386 66c-1 0-1.92-.153-2.76-.46a6.766 6.766 0 0 1-2.18-1.32 6.25 6.25 0 0 1-1.42-2.06c-.347-.8-.52-1.687-.52-2.66 0-.973.173-1.853.52-2.64a6.25 6.25 0 0 1 1.42-2.06 6.33 6.33 0 0 1 2.18-1.32c.84-.32 1.76-.48 2.76-.48h1.88c.986 0 1.9.16 2.74.48a6.13 6.13 0 0 1 2.16 1.32 6.109 6.109 0 0 1 1.44 2.06c.346.787.52 1.667.52 2.64 0 .973-.174 1.86-.52 2.66a6.109 6.109 0 0 1-1.44 2.06c-.6.56-1.32 1-2.16 1.32-.84.307-1.754.46-2.74.46h-1.88Zm10.056 0v-3.36h9.72c.253 0 .46-.073.62-.22.16-.16.24-.38.24-.66s-.08-.5-.24-.66a.839.839 0 0 0-.62-.24h-5.72c-.6 0-1.16-.093-1.68-.28a4.371 4.371 0 0 1-1.32-.8 3.9 3.9 0 0 1-.86-1.24 4.12 4.12 0 0 1-.3-1.6c0-.587.1-1.12.3-1.6.213-.493.5-.913.86-1.26a3.895 3.895 0 0 1 1.32-.8c.52-.187 1.08-.28 1.68-.28h9.88v3.34h-9.72c-.254 0-.46.073-.62.22-.147.147-.22.36-.22.64 0 .267.073.48.22.64.16.16.366.24.62.24h5.72c.613 0 1.173.1 1.68.3.506.187.946.453 1.32.8.373.347.66.767.86 1.26.213.48.32 1.007.32 1.58 0 .6-.107 1.147-.32 1.64-.2.48-.487.9-.86 1.26a3.893 3.893 0 0 1-1.32.8 4.826 4.826 0 0 1-1.68.28h-9.88Zm20.448-5.14v-2.78h7.68v2.78h-7.68ZM86.23 66V53h12.48v3.34h-8.98v6.3h9V66h-12.5Zm25.292 0-3.84-4.48-3.74 4.48h-4.16l5.7-6.78-5.24-6.22h4.42l3.3 3.94 3.32-3.94h4.16l-5.26 6.24 5.76 6.76h-4.42Zm10.126-3.22v-3.1h4.22c.467 0 .853-.153 1.16-.46.32-.307.48-.707.48-1.2 0-.507-.16-.913-.48-1.22-.307-.307-.693-.46-1.16-.46h-5.22V66h-3.48V53h8.64c.76 0 1.453.12 2.08.36a4.83 4.83 0 0 1 1.64 1c.467.427.827.94 1.08 1.54.253.6.38 1.267.38 2 0 .72-.127 1.38-.38 1.98-.253.6-.613 1.12-1.08 1.56-.453.427-1 .76-1.64 1-.627.227-1.32.34-2.08.34h-4.16Zm19.647-.14a3.52 3.52 0 0 0 1.26-.22 3.21 3.21 0 0 0 1-.64 2.8 2.8 0 0 0 .64-1c.16-.387.24-.813.24-1.28 0-.467-.08-.893-.24-1.28a2.803 2.803 0 0 0-.64-1 2.796 2.796 0 0 0-1-.64 3.265 3.265 0 0 0-1.26-.24h-2.36c-.453 0-.873.08-1.26.24-.387.147-.72.36-1 .64s-.5.613-.66 1c-.16.387-.24.813-.24 1.28 0 .467.073.893.22 1.28.16.387.38.72.66 1 .28.267.613.48 1 .64.386.147.813.22 1.28.22h2.36Zm-2.12 3.36c-1 0-1.92-.153-2.76-.46a6.763 6.763 0 0 1-2.18-1.32 6.255 6.255 0 0 1-1.42-2.06c-.347-.8-.52-1.687-.52-2.66 0-.973.173-1.853.52-2.64.347-.8.82-1.487 1.42-2.06a6.327 6.327 0 0 1 2.18-1.32c.84-.32 1.76-.48 2.76-.48h1.88c.987 0 1.9.16 2.74.48a6.13 6.13 0 0 1 2.16 1.32 6.117 6.117 0 0 1 1.44 2.06c.347.787.52 1.667.52 2.64 0 .973-.173 1.86-.52 2.66a6.117 6.117 0 0 1-1.44 2.06c-.6.56-1.32 1-2.16 1.32-.84.307-1.753.46-2.74.46h-1.88Z" fill="#242424"/><path d="m50.509 3.935 19.508 19.459L50.51 42.853 31 23.393 50.509 3.936Z" fill="url(#a)"/><path d="m96.509 3.935 19.508 19.459-19.508 19.459L77 23.393 96.509 3.936Z" fill="url(#b)"/><path d="m73.517 0 11.564 11.534-11.564 11.533-11.563-11.533L73.517 0Z" fill="#FCCB17"/><path d="m73.517 22.933 11.564 11.533L73.517 46 61.954 34.466l11.563-11.533Z" fill="#E84B0F"/><defs><linearGradient id="a" x1="64.017" y1="56.5" x2="63.872" y2="-.5" gradientUnits="userSpaceOnUse"><stop stop-color="#D61607"/><stop offset=".49" stop-color="#F87717"/><stop offset="1" stop-color="#FECE24"/></linearGradient><linearGradient id="b" x1="110.018" y1="56.5" x2="109.872" y2="-.5" gradientUnits="userSpaceOnUse"><stop stop-color="#D61607"/><stop offset=".49" stop-color="#F87717"/><stop offset="1" stop-color="#FECE24"/></linearGradient></defs></svg>
